icons/svg/reload.svg

﻿<?xml version="1.0" encoding="utf-8"?>
<!DOCTYPE svg PUBLIC "-//W3C//DTD SVG 1.1//EN" "http://www.w3.org/Graphics/SVG/1.1/DTD/svg11.dtd">
<svg xmlns="http://www.w3.org/2000/svg" xmlns:xlink="http://www.w3.org/1999/xlink" version="1.1" baseProfile="full" width="24" height="24" viewBox="0 0 24.00 24.00" enable-background="new 0 0 24.00 24.00" xml:space="preserve">
	<path fill="#000000" fill-opacity="1" stroke-width="0.2" stroke-linejoin="round" d="M 18.9918,11.9965L 22.3152,11.9965L 17.3654,16.9462L 12.4157,11.9965L 16.9694,11.9965C 16.9765,10.462 16.4179,8.92762 15.2441,7.75382C 12.9036,5.4133 9.09935,5.4133 6.75882,7.75382C 4.4183,10.0943 4.4183,13.8986 6.75883,16.2391C 8.60437,18.0846 11.3551,18.4736 13.5824,17.4058L 15.0532,18.8766C 11.9842,20.6867 7.98212,20.2908 5.34461,17.6533C 2.2192,14.5279 2.22628,9.47209 5.35168,6.34668C 8.47704,3.22133 13.5329,3.2142 16.6583,6.33961C 18.221,7.90231 18.9918,9.94585 18.9918,11.9965 Z "/>
</svg>

<svg xmlns="http://www.w3.org/2000/svg" version="1.1" baseProfile="full" width="24" height="24" viewBox="0 0 24.00 24.00" xml:space="preserve"><path fill="#000" fill-opacity="1" stroke-width=".2" stroke-linejoin="round" d="M18.992 11.996h3.323l-4.95 4.95-4.95-4.95h4.554c.007-1.534-.552-3.068-1.726-4.242-2.34-2.34-6.145-2.34-8.485 0-2.342 2.34-2.342 6.145 0 8.485 1.844 1.845 4.595 2.234 6.822 1.166l1.47 1.47c-3.068 1.81-7.07 1.415-9.707-1.223-3.126-3.125-3.12-8.18.007-11.306 3.125-3.126 8.18-3.133 11.306-.007 1.563 1.562 2.334 3.606 2.334 5.656z"/></svg>
